X: 10623
M: 6/8
L: 1/8
K: G
(d/c/) |\
|: (g/a/) |\
b2g a2f | gfe d2c | Bdf gdB | cAA A2 (g/a/) |\
b2g a2f | gfe agf | bag fge | dgf ed"^D.C."c |]


